static/assets/images/networks/bob-mono.svg

<svg width="165" height="256" viewBox="0 0 165 256" fill="none" xmlns="http://www.w3.org/2000/svg">
<path d="M69.2735 0H4.06384C1.81952 0 0 1.81477 0 4.05328V69.0976C0 71.3362 1.81952 73.1508 4.06384 73.1508H69.2735C71.5178 73.1508 73.337 71.3362 73.337 69.0976V4.05328C73.337 1.81477 71.5178 0 69.2735 0Z" fill="black"/>
<path d="M0.0261074 186.896V251.94C0.0261074 254.179 1.84496 255.993 4.08928 255.993H69.2989C71.5432 255.993 73.3625 254.179 73.3625 251.94V186.896C73.3625 184.657 71.5432 182.842 69.2989 182.842H4.08928C1.84496 182.842 0.0261074 184.657 0.0261074 186.896Z" fill="black"/>
<path d="M0 95.4843V160.529C0 162.767 1.81952 164.582 4.06384 164.582H69.2735C71.5178 164.582 73.337 162.767 73.337 160.529V95.4843C73.337 93.2457 71.5178 91.431 69.2735 91.431H4.06384C1.81952 91.431 0 93.2457 0 95.4843Z" fill="black"/>
<path d="M91.6632 186.902V251.947C91.6632 254.185 93.4825 256 95.7268 256H160.936C163.181 256 165 254.185 165 251.947V186.902C165 184.664 163.181 182.849 160.936 182.849H95.7268C93.4825 182.849 91.6632 184.664 91.6632 186.902Z" fill="black"/>
<path d="M91.6632 95.4648V160.509C91.6632 162.748 93.4825 164.562 95.7268 164.562H160.936C163.181 164.562 165 162.748 165 160.509V95.4648C165 93.2261 163.181 91.4115 160.936 91.4115H95.7268C93.4825 91.4115 91.6632 93.2261 91.6632 95.4648Z" fill="black"/>
</svg>

<svg xmlns="http://www.w3.org/2000/svg" fill="none" viewBox="0 0 165 256"><path fill="#000" d="M69.274 0H4.064A4.06 4.06 0 0 0 0 4.053v65.045a4.06 4.06 0 0 0 4.064 4.053h65.21a4.06 4.06 0 0 0 4.063-4.053V4.053A4.06 4.06 0 0 0 69.273 0M.026 186.896v65.044a4.06 4.06 0 0 0 4.063 4.053H69.3a4.06 4.06 0 0 0 4.063-4.053v-65.044a4.06 4.06 0 0 0-4.063-4.054H4.089a4.06 4.06 0 0 0-4.063 4.054M0 95.484v65.045a4.06 4.06 0 0 0 4.064 4.053h65.21a4.06 4.06 0 0 0 4.063-4.053V95.484a4.06 4.06 0 0 0-4.064-4.053H4.064A4.06 4.06 0 0 0 0 95.484m91.663 91.418v65.045A4.06 4.06 0 0 0 95.727 256h65.209a4.06 4.06 0 0 0 4.064-4.053v-65.045a4.06 4.06 0 0 0-4.064-4.053h-65.21a4.06 4.06 0 0 0-4.063 4.053m0-91.437v65.044a4.06 4.06 0 0 0 4.064 4.053h65.209a4.06 4.06 0 0 0 4.064-4.053V95.465a4.06 4.06 0 0 0-4.064-4.053h-65.21a4.06 4.06 0 0 0-4.063 4.053"/></svg>
